X: 1
T: the Irish Rover
Z: John Chambers <jc@trillian.mit.edu>
R: march
M: C|
L: 1/4
K: D
 FE | "D"D2 FG | A2 de |     f2  ed | "G"d2 cB | "D"A2 BG |     F2  AF | "A7"E4-  |    EG FE |
	| "D"D2 FG | A2 de |     f2  ed | "G"d2 cB | "D"A2 BG | "A7"FG- GE |  "D"D4-  |    DA Bc ||
    | "D"d3  e | f2 ed | "A7"e>f ec |    A2 Bc | "D"d3  e |     f2  ed | "A7"e3 c |   A>G FE |
    | "D"D2 FG | A2 de |     f2  dF | "G"G2 FE | "D"D2 FA |     d2  f2 | "A7"e4   | "D"d2    |]
